packages/icons/src/emoji/svg/flame.svg

<svg width="120" height="120" viewBox="0 0 120 120" fill="none" xmlns="http://www.w3.org/2000/svg">
<path d="M92.4278 47.9625C88.4622 48.825 85.0403 51.0375 83.4372 54.8531C82.4716 57.1687 81.1216 63.15 77.4184 61.6031C75.6466 60.8718 75.6747 58.3312 75.8809 56.7468C76.3216 53.4937 77.7841 50.5218 78.7872 47.4281C79.8184 44.2218 80.7091 40.9968 81.3466 37.6781C83.4841 26.6906 82.8934 14.0343 75.1216 5.24997C73.8091 3.74997 70.4997 0.281217 68.3153 0.206217C66.9653 0.168717 68.2966 1.76247 68.6716 2.29684C69.4309 3.39372 70.0684 4.58434 70.5559 5.83122C76.3028 20.4937 62.1372 31.6593 52.8278 40.35C48.3653 44.5218 44.8028 48.9468 41.5966 54.1125C41.2778 54.6093 40.5747 56.2781 39.6653 55.9312C38.5872 55.5187 38.4747 53.0531 38.1372 52.1343C37.4997 50.3718 36.5153 48.45 35.2497 47.0718C32.8028 44.3906 29.3809 42.5812 25.6778 42.825C25.5372 42.8343 25.1341 42.9 24.6372 43.0125C23.8591 43.1812 21.7778 43.4531 22.3403 44.7093C22.6309 45.3562 23.4841 45.3 24.0934 45.4781C31.9122 47.8781 31.7341 56.0718 30.4684 62.6531C28.1809 74.6343 21.8434 85.9594 26.3434 98.2781C31.6497 112.8 48.2622 121.866 63.3372 119.372C67.4528 118.697 72.1966 117.366 75.8903 115.378C79.8184 113.259 84.1216 110.362 87.1872 107.1C91.1341 102.909 93.6466 97.5375 94.3872 91.8468C95.2591 85.2656 93.1591 79.0593 91.2466 72.8437C88.9403 65.3437 86.2872 53.1 95.8684 49.4343C96.3372 49.2468 97.2747 49.1062 97.6028 48.6093C98.8216 46.7906 92.9716 47.85 92.4278 47.9625Z" fill="#ED6C30"/>
<path d="M63.8723 99.4407C65.8598 101.109 68.6442 100.294 70.5192 98.8688C71.5223 98.1095 72.3848 97.1345 72.9473 96.0001C73.1817 95.5126 73.4536 94.8938 73.4536 94.3407C73.4536 93.6001 73.0129 92.8688 73.2004 92.1095C74.7754 91.8001 76.7254 96.3282 76.9223 97.3782C78.4973 105.656 70.6973 112.481 63.1692 113.803C50.4661 116.025 43.1629 104.897 44.6254 95.0157C45.5348 88.8657 49.6598 84.6376 53.8598 80.4188C57.3379 76.922 60.5629 73.922 61.6879 69.3751C61.8848 68.5688 61.8379 67.3313 61.6036 66.5345C61.4067 65.8501 61.0317 65.222 61.0129 64.4813C60.9567 62.9251 62.4661 64.9595 62.8129 65.3532C66.9942 70.0688 68.1848 77.0345 67.0692 83.1282C66.3473 87.0657 63.5348 89.8782 62.5504 93.647C61.9786 95.7938 62.0348 97.8845 63.8723 99.4407Z" fill="#FCC21B"/>
</svg>

<svg xmlns="http://www.w3.org/2000/svg" fill="none" aria-hidden="true" data-slot="icon" viewBox="0 0 120 120"><path fill="#ED6C30" d="M92.428 47.963c-3.966.862-7.388 3.075-8.99 6.89-.966 2.316-2.316 8.297-6.02 6.75-1.771-.731-1.743-3.272-1.537-4.856.44-3.253 1.903-6.225 2.906-9.319 1.031-3.206 1.922-6.431 2.56-9.75 2.137-10.987 1.546-23.644-6.225-32.428C73.809 3.75 70.5.281 68.315.206c-1.35-.037-.018 1.556.357 2.09a17.3 17.3 0 0 1 1.884 3.535c5.747 14.663-8.419 25.828-17.728 34.519-4.463 4.172-8.025 8.597-11.231 13.762-.32.497-1.022 2.166-1.932 1.82-1.078-.413-1.19-2.879-1.528-3.798-.637-1.762-1.622-3.684-2.887-5.062-2.447-2.681-5.87-4.49-9.572-4.247-.14.01-.544.075-1.04.188-.779.168-2.86.44-2.298 1.696.29.647 1.144.591 1.753.77 7.82 2.4 7.641 10.593 6.375 17.174-2.287 11.981-8.625 23.306-4.125 35.625 5.307 14.522 21.92 23.588 36.994 21.094 4.116-.675 8.86-2.006 12.553-3.994 3.928-2.119 8.232-5.016 11.297-8.278 3.947-4.191 6.46-9.562 7.2-15.253.872-6.581-1.228-12.788-3.14-19.003-2.307-7.5-4.96-19.744 4.621-23.41.47-.187 1.407-.328 1.735-.825 1.219-1.818-4.631-.759-5.175-.647"/><path fill="#FCC21B" d="M63.872 99.44c1.988 1.669 4.772.854 6.647-.571 1.003-.76 1.866-1.734 2.428-2.869.235-.487.507-1.106.507-1.66 0-.74-.441-1.471-.254-2.23 1.575-.31 3.525 4.218 3.722 5.268 1.575 8.278-6.225 15.103-13.753 16.425-12.703 2.222-20.006-8.906-18.544-18.787.91-6.15 5.035-10.378 9.235-14.597 3.478-3.497 6.703-6.497 7.828-11.044.197-.806.15-2.044-.084-2.84-.197-.685-.572-1.313-.591-2.054-.056-1.556 1.453.479 1.8.872 4.181 4.716 5.372 11.682 4.256 17.775-.722 3.938-3.534 6.75-4.519 10.519-.571 2.147-.515 4.237 1.322 5.794"/></svg>
